X: 381
T: Behind the Bush in the Garden
B: jims roots
M:6/8
L:1/8
R: Jig
Q: 3/8=100
K:Amin
V:1 
%N: page 101
%N: heptatonic
A/B/ |: "Am"c2 A AGE | c2 A AGE | "C"G2 G GAE | (G{A}G{F}G) E2 B |
"Am"c2 d e2 a | "C"{ga}g2 e "D"d2 e | "Am"{cd}c2 A "Em"AGE | "Am"A3 A2 A/B/ :|
"Am"c2 B c2 d | "C"efe "Em"e2 d | "Am"c2 B c2 d | "Em"e3 G2 G |
"Am"{cd}c2 B c2 d | "C"efe "Em"e2 d | "Am"cBA "Em"BAG | "Am"A3 A2 A/B/ |
"Am"c2 B c2 d | "C"efe "Em"e2 d | "Am"c2 B c2 d | "Em"e3 G2 G |
"Am"c2 d "C"e2 a | "Em"{ga}g2 e "Dm"d2 e | "Am"c2 A "Em"BAG | "Am"A3 A2 |]
% abcbook-tune_id 6298c245ee91fc97e94daf68


% abcbook-boost 0
% abcbook-tablature 
% abcbook-transpose 
% abcbook-lastupdated 1654178373278
% abcbook-soundfonts 
% abcbook-repeats 1


